X:1
T:Boatman
M:3/4
L:1/4
K:G
 d| d2 B| e2 d| d2 c| c/2 c3/2 B| B2 G| c2 B| B2 A| G/2 G3/2 F| G3/2- F/2E/2-D/2|\
 C2 E| D2 D| G/2 G3/2||

